icons/1_Primary/Patronite.svg

<svg xmlns="http://www.w3.org/2000/svg" viewBox="0 0 1024 1024">
   <circle cx="512" cy="512" r="512" style="fill:#ed1b2c"/>
   <path d="m660.75 708.03-145.99 62.76-103.77-41.38V613.8l15.84 36.85 86.8 34.61 85.85-36.9.25-.64 110.61-64.05-49.58 124.36ZM306.29 570.35l105.86-61.31-22.23 55.77.83 1.93v154.6l-23.59-9.41-60.87-141.59Zm55.19-147.56 118.21 31.51-55.15 23.71-.25.63-110.61 64.05 47.81-119.91Zm147.74-180.25 144.11 166.62-32.45 121.71-23.71-55.15-.19-.08-101.99-216.07 14.24-17.03Zm124.86 319.02-.28-.63 32.93-123.5 50.98 118.59-105.87 61.31 22.23-55.77ZM510.68 463l71.22 28.4 30.28 70.45-28.4 71.23-70.45 30.29-71.23-28.4-30.28-70.45 28.4-71.23 70.46-30.28Zm-.29-21.9-.63.28-136.4-36.37L480.7 276.66l88.73 187.99-59.04-23.55Zm162.78-39.95-164.2-189.84-162.35 194.14-64.12 160.78 69.38 161.39 163.17 65.06 161.39-69.37 65.06-163.17-68.34-158.98Z" style="fill:#fff"/>
</svg>

<svg width="1024" height="1024" viewBox="0 0 1024 1024" fill="none" xmlns="http://www.w3.org/2000/svg">
<g clip-path="url(#clip0_2_3096)">
<path d="M512 1024C794.77 1024 1024 794.77 1024 512C1024 229.23 794.77 0 512 0C229.23 0 0 229.23 0 512C0 794.77 229.23 1024 512 1024Z" fill="#FF837D"/>
<path d="M660.75 708.03L514.76 770.79L410.99 729.41V613.8L426.83 650.65L513.63 685.26L599.48 648.36L599.73 647.72L710.34 583.67L660.76 708.03H660.75ZM306.29 570.35L412.15 509.04L389.92 564.81L390.75 566.74V721.34L367.16 711.93L306.29 570.34V570.35ZM361.48 422.79L479.69 454.3L424.54 478.01L424.29 478.64L313.68 542.69L361.49 422.78L361.48 422.79ZM509.22 242.54L653.33 409.16L620.88 530.87L597.17 475.72L596.98 475.64L494.99 259.57L509.23 242.54H509.22ZM634.08 561.56L633.8 560.93L666.73 437.43L717.71 556.02L611.84 617.33L634.07 561.56H634.08ZM510.68 463L581.9 491.4L612.18 561.85L583.78 633.08L513.33 663.37L442.1 634.97L411.82 564.52L440.22 493.29L510.68 463.01V463ZM510.39 441.1L509.76 441.38L373.36 405.01L480.7 276.66L569.43 464.65L510.39 441.1ZM673.17 401.15L508.97 211.31L346.62 405.45L282.5 566.23L351.88 727.62L515.05 792.68L676.44 723.31L741.5 560.14L673.16 401.16L673.17 401.15Z" fill="white"/>
</g>
<defs>
<clipPath id="clip0_2_3096">
<rect width="1024" height="1024" fill="white"/>
</clipPath>
</defs>
</svg>
